img/logotipo-disk-ovos-branco.svg

<svg width="112" height="56" viewBox="0 0 112 56" fill="none" xmlns="http://www.w3.org/2000/svg">
<path d="M46.1459 32.8295C46.1459 45.6262 35.8158 56 23.073 56C10.3301 56 0 45.6262 0 32.8295C0 20.0327 10.3301 9.65895 23.073 9.65895C35.8158 9.65895 46.1459 20.0327 46.1459 32.8295Z" fill="white"/>
<path d="M54.4884 0.804367C55.0434 1.36429 55.3472 2.07444 55.2802 2.89618C55.2635 3.78325 54.4878 5.96101 53.5673 7.0976C52.6704 8.20494 51.5975 9.14479 50.3688 9.89918L45.6272 12.8104C44.6392 13.417 43.9669 14.3784 43.6808 15.5935L43.3726 16.9009C43.3494 16.9992 43.304 17.0835 43.2388 17.149C42.9554 17.4334 42.3708 17.3076 41.9335 16.8684L38.492 13.4124C38.0547 12.9732 37.9293 12.386 38.2125 12.1015C38.2777 12.036 38.3617 11.9903 38.4596 11.967L39.7615 11.6577C40.9715 11.3704 41.9289 10.6953 42.533 9.70308L45.4318 4.94133C46.183 3.70736 47.119 2.63008 48.2217 1.72939C49.3535 0.804978 51.5221 0.0259817 52.4054 0.00920352C53.2237 -0.0580636 53.9309 0.247068 54.4884 0.804367Z" fill="white"/>
<path d="M23.1253 43.4493C20.8941 43.4493 18.814 42.4449 16.885 40.4361C14.3323 37.7778 10.5751 32.3541 10.5751 28.4488C10.5751 26.629 10.9702 25.1401 11.7604 23.9821C12.5506 22.8005 13.7243 22.2096 15.2814 22.2096C18.3469 22.2096 22.2379 25.8021 23.1253 28.4488C24.1485 25.9677 27.8575 22.2096 30.8645 22.2096C32.4217 22.2096 33.5953 22.7768 34.3855 23.9112C35.1757 25.0456 35.5708 26.5581 35.5708 28.4488C35.5708 32.364 31.892 37.7688 29.3306 40.4361C27.4248 42.4449 25.3564 43.4493 23.1253 43.4493Z" fill="black"/>
<path d="M29.4797 31.9654C30.106 32.6666 30.3866 33.4866 30.3214 34.4255C30.2563 35.3645 29.8138 36.2032 28.9942 36.9415C28.2034 37.6814 27.3328 38.0255 26.3826 37.9737C25.4461 37.9371 24.6646 37.5682 24.0384 36.8671C23.4121 36.166 23.1315 35.3459 23.1967 34.407C23.2619 33.4681 23.6968 32.6362 24.5012 31.9115C25.3208 31.1732 26.1989 30.8223 27.1355 30.8588C28.072 30.8954 28.8534 31.2643 29.4797 31.9654Z" fill="#FF9700"/>
<path d="M56.1779 31.842C54.2845 31.842 52.9048 31.6143 52.0389 31.1589C51.1729 30.7035 50.6152 29.9763 50.3657 28.9774C50.1162 27.9784 49.9914 26.4212 49.9914 24.3058C49.9914 22.161 50.1088 20.5671 50.3437 19.524C50.5932 18.4663 51.1436 17.6877 51.9949 17.1883C52.8608 16.6741 54.2331 16.417 56.1118 16.417C57.242 16.417 58.3941 16.6814 59.5683 17.2103C60.7425 17.7245 61.7332 18.5765 62.5404 19.7664C63.3477 20.9564 63.7513 22.4768 63.7513 24.3278C63.7513 26.1054 63.3403 27.5597 62.5184 28.6909C61.6965 29.8074 60.7058 30.6153 59.5463 31.1148C58.3868 31.5996 57.264 31.842 56.1779 31.842ZM54.8129 27.9637C55.2825 28.0225 55.6201 28.0519 55.8256 28.0519C56.8677 28.0519 57.6749 27.7727 58.2473 27.2145C58.8198 26.6563 59.106 25.885 59.106 24.9008C59.106 24.0193 58.8271 23.3362 58.2694 22.8514C57.7116 22.352 56.9264 22.1022 55.9137 22.1022C55.5321 22.1022 55.1651 22.1316 54.8129 22.1904V27.9637Z" fill="white"/>
<path d="M71.55 27.8535C72.2986 27.9417 72.8783 28.1327 73.2893 28.4265C73.7149 28.7056 73.9277 29.1536 73.9277 29.7706C73.9277 30.3876 73.7076 30.843 73.2673 31.1369C72.8416 31.4307 72.3279 31.6143 71.7262 31.6877C71.1244 31.7465 70.3465 31.7759 69.3925 31.7759C68.4532 31.7759 67.6826 31.7465 67.0808 31.6877C66.4791 31.6143 65.9654 31.4307 65.5397 31.1369C65.1141 30.843 64.9013 30.3876 64.9013 29.7706C64.9013 29.1683 65.0994 28.7276 65.4957 28.4485C65.9067 28.1547 66.4644 27.9564 67.1689 27.8535C67.0955 27.0015 67.0588 25.7822 67.0588 24.1956C67.0588 22.7706 67.0882 21.6248 67.1469 20.758C66.2956 20.6699 65.6278 20.4642 65.1434 20.141C64.6591 19.8179 64.4169 19.311 64.4169 18.6206C64.4169 17.9448 64.6518 17.4453 65.1214 17.1222C65.5911 16.799 66.1562 16.6006 66.8166 16.5272C67.4771 16.4537 68.3284 16.417 69.3705 16.417C70.4126 16.417 71.2638 16.4537 71.9243 16.5272C72.5848 16.6006 73.1499 16.799 73.6195 17.1222C74.1039 17.4453 74.346 17.9448 74.346 18.6206C74.346 19.311 74.0965 19.8179 73.5975 20.141C73.1132 20.4642 72.438 20.6699 71.5721 20.758C71.6454 21.566 71.6821 22.7119 71.6821 24.1956C71.6821 25.6206 71.6381 26.8399 71.55 27.8535Z" fill="white"/>
<path d="M81.4506 31.864C80.4819 31.864 79.5499 31.7318 78.6546 31.4674C77.774 31.1883 77.0548 30.8063 76.4971 30.3215C75.9393 29.8221 75.6605 29.2565 75.6605 28.6248C75.6605 28.0225 75.8439 27.545 76.2109 27.1925C76.5778 26.8399 77.0401 26.6636 77.5979 26.6636C77.9648 26.6636 78.2803 26.715 78.5445 26.8179C78.8234 26.906 79.1243 27.0382 79.4472 27.2145C79.682 27.332 79.8802 27.4275 80.0416 27.501C80.2177 27.5597 80.4012 27.5891 80.592 27.5891C81.0763 27.5891 81.3185 27.3981 81.3185 27.0162C81.3185 26.8693 81.2158 26.7444 81.0103 26.6416C80.8048 26.5241 80.4599 26.3698 79.9756 26.1788C79.1096 25.8409 78.4051 25.5104 77.862 25.1872C77.0254 24.6877 76.4457 24.1442 76.1228 23.5566C75.8146 22.969 75.6605 22.2344 75.6605 21.353C75.6605 20.501 75.932 19.7003 76.4751 18.9511C77.0181 18.1872 77.7593 17.5776 78.6986 17.1222C79.638 16.6668 80.6654 16.4391 81.7809 16.4391C82.867 16.4391 83.8577 16.608 84.753 16.9459C85.663 17.2691 86.3748 17.7245 86.8885 18.3121C87.4169 18.885 87.6811 19.524 87.6811 20.2292C87.6811 21.0372 87.4389 21.6468 86.9546 22.0582C86.4849 22.4548 85.9565 22.6531 85.3694 22.6531C84.8851 22.6531 84.5182 22.6237 84.2686 22.565C84.0338 22.5062 83.799 22.4254 83.5641 22.3226C83.3733 22.2491 83.2119 22.1977 83.0798 22.1683C82.9477 22.1243 82.7642 22.1022 82.5294 22.1022C82.3386 22.1022 82.1551 22.1683 81.979 22.3005C81.8175 22.4181 81.7368 22.587 81.7368 22.8074C81.7368 22.969 81.8322 23.1085 82.023 23.226C82.2138 23.3289 82.434 23.4244 82.6835 23.5125C82.933 23.6006 83.1091 23.6668 83.2119 23.7108C84.5769 24.2103 85.5822 24.7832 86.228 25.4296C86.8738 26.0613 87.1967 26.884 87.1967 27.8976C87.1967 29.1463 86.6904 30.1232 85.6777 30.8284C84.6796 31.5188 83.2706 31.864 81.4506 31.864Z" fill="white"/>
<path d="M97.6529 24.2838C98.9591 24.8861 100.067 25.6132 100.977 26.4653C101.902 27.3173 102.364 28.2428 102.364 29.2418C102.364 30.1232 102.122 30.7769 101.638 31.203C101.153 31.629 100.559 31.842 99.8544 31.842C98.8417 31.842 97.8877 31.3792 96.9924 30.4537C96.1118 29.5136 95.2605 28.2869 94.4386 26.7738C94.4386 27.8168 94.3799 28.6909 94.2624 29.396C94.1597 30.1012 93.9249 30.6888 93.5579 31.1589C93.191 31.6143 92.6406 31.842 91.9067 31.842C91.1435 31.842 90.5785 31.5555 90.2115 30.9826C89.8593 30.4097 89.6391 29.7192 89.5511 28.9113C89.4777 28.1033 89.441 27.0456 89.441 25.7381C89.441 24.8126 89.4483 23.7182 89.463 22.4548C89.4923 21.1767 89.5217 20.3834 89.5511 20.0749C89.5804 18.9732 89.8079 18.0917 90.2335 17.4307C90.6592 16.7549 91.2609 16.417 92.0388 16.417C92.9342 16.417 93.5579 16.799 93.9102 17.5629C94.2771 18.3268 94.4606 19.4947 94.4606 21.0665V21.7276C95.2091 20.3761 96.0751 19.1641 97.0584 18.0917C98.0418 17.0193 99.0252 16.4831 100.009 16.4831C100.698 16.4831 101.263 16.7476 101.704 17.2764C102.159 17.7906 102.386 18.4296 102.386 19.1935C102.386 20.2218 101.946 21.2061 101.065 22.1463C100.199 23.0718 99.0619 23.7843 97.6529 24.2838Z" fill="white"/>
<path d="M57.497 49.2415C56.1618 49.2562 54.922 48.9252 53.7775 48.2485C52.6477 47.5718 51.738 46.645 51.0483 45.4681C50.3734 44.2765 50.0212 42.9599 49.9919 41.5182C49.9772 40.1353 50.3 38.8555 50.9603 37.6786C51.6206 36.5017 52.5303 35.5676 53.6894 34.8762C54.8486 34.17 56.1178 33.817 57.497 33.817C58.8469 33.8023 60.0941 34.1406 61.2386 34.832C62.3978 35.5235 63.3148 36.4723 63.9898 37.6786C64.6647 38.8849 65.0022 40.2163 65.0022 41.6726C65.0022 43.0408 64.6647 44.2986 63.9898 45.446C63.3148 46.5935 62.3978 47.5056 61.2386 48.1823C60.0941 48.859 58.8469 49.212 57.497 49.2415ZM57.5631 44.9385C58.238 44.9385 58.8103 44.6958 59.2798 44.2103C59.764 43.7248 59.9988 43.0923 59.9841 42.3126C59.9841 41.5182 59.7493 40.8783 59.2798 40.3928C58.8103 39.9073 58.238 39.6646 57.5631 39.6646C56.8881 39.6646 56.3159 39.9073 55.8464 40.3928C55.3768 40.8783 55.1421 41.5182 55.1421 42.3126C55.1421 43.0923 55.3768 43.7248 55.8464 44.2103C56.3159 44.6958 56.8881 44.9385 57.5631 44.9385Z" fill="white"/>
<path d="M74.2493 49.2194C72.8408 49.2194 71.5275 48.5942 70.3097 47.3437C69.0918 46.0933 68.1234 44.5634 67.4045 42.7539C66.6855 40.9297 66.326 39.238 66.326 37.6786C66.326 36.5459 66.5754 35.6191 67.0743 34.8982C67.5732 34.1627 68.3142 33.7949 69.2973 33.7949C70.1043 33.7949 70.7645 34.1038 71.2781 34.7217C71.8063 35.3396 72.2172 36.0972 72.5106 36.9946C72.8041 37.8772 73.1195 39.0394 73.457 40.4811C73.7651 41.8345 74.0293 42.8348 74.2493 43.4821C74.4401 43.0261 74.6235 42.4818 74.7996 41.8492C74.9756 41.2166 75.137 40.5914 75.2838 39.9735C75.6213 38.6201 75.9294 37.5315 76.2082 36.7077C76.5016 35.8839 76.8831 35.1925 77.3526 34.6334C77.8222 34.0744 78.4164 33.7949 79.1354 33.7949C80.1185 33.7949 80.8595 34.148 81.3583 34.8541C81.8572 35.5602 82.1066 36.5017 82.1066 37.6786C82.1066 39.238 81.7545 40.9297 81.0502 42.7539C80.3459 44.5634 79.3848 46.0933 78.167 47.3437C76.9638 48.5942 75.6579 49.2194 74.2493 49.2194Z" fill="white"/>
<path d="M90.9176 49.2415C89.5823 49.2562 88.3425 48.9252 87.198 48.2485C86.0682 47.5718 85.1585 46.645 84.4688 45.4681C83.7939 44.2765 83.4417 42.9599 83.4124 41.5182C83.3977 40.1353 83.7205 38.8555 84.3808 37.6786C85.0411 36.5017 85.9508 35.5676 87.11 34.8762C88.2691 34.17 89.5383 33.817 90.9176 33.817C92.2675 33.8023 93.5146 34.1406 94.6591 34.832C95.8183 35.5235 96.7353 36.4723 97.4103 37.6786C98.0852 38.8849 98.4227 40.2163 98.4227 41.6726C98.4227 43.0408 98.0852 44.2986 97.4103 45.446C96.7353 46.5935 95.8183 47.5056 94.6591 48.1823C93.5146 48.859 92.2675 49.212 90.9176 49.2415ZM90.9836 44.9385C91.6585 44.9385 92.2308 44.6958 92.7003 44.2103C93.1845 43.7248 93.4193 43.0923 93.4046 42.3126C93.4046 41.5182 93.1698 40.8783 92.7003 40.3928C92.2308 39.9073 91.6585 39.6646 90.9836 39.6646C90.3086 39.6646 89.7364 39.9073 89.2669 40.3928C88.7973 40.8783 88.5626 41.5182 88.5626 42.3126C88.5626 43.0923 88.7973 43.7248 89.2669 44.2103C89.7364 44.6958 90.3086 44.9385 90.9836 44.9385Z" fill="white"/>
<path d="M105.771 49.2415C104.803 49.2415 103.871 49.1091 102.976 48.8443C102.096 48.5648 101.377 48.1823 100.819 47.6968C100.262 47.1966 99.983 46.6303 99.983 45.9977C99.983 45.3945 100.166 44.9164 100.533 44.5634C100.9 44.2103 101.362 44.0338 101.92 44.0338C102.287 44.0338 102.602 44.0853 102.866 44.1882C103.145 44.2765 103.446 44.4089 103.769 44.5854C104.003 44.7031 104.201 44.7987 104.363 44.8723C104.539 44.9311 104.722 44.9606 104.913 44.9606C105.397 44.9606 105.639 44.7693 105.639 44.3868C105.639 44.2397 105.537 44.1147 105.331 44.0117C105.126 43.894 104.781 43.7395 104.297 43.5483C103.431 43.2099 102.727 42.879 102.184 42.5553C101.348 42.0551 100.768 41.5108 100.445 40.9224C100.137 40.334 99.983 39.5984 99.983 38.7157C99.983 37.8625 100.254 37.0607 100.797 36.3105C101.34 35.5455 102.081 34.935 103.02 34.479C103.959 34.0229 104.986 33.7949 106.102 33.7949C107.187 33.7949 108.178 33.9641 109.073 34.3024C109.982 34.6261 110.694 35.0821 111.208 35.6706C111.736 36.2443 112 36.8842 112 37.5903C112 38.3995 111.758 39.01 111.274 39.4219C110.804 39.8191 110.276 40.0177 109.689 40.0177C109.205 40.0177 108.838 39.9882 108.589 39.9294C108.354 39.8706 108.119 39.7896 107.884 39.6867C107.694 39.6131 107.532 39.5616 107.4 39.5322C107.268 39.4881 107.085 39.466 106.85 39.466C106.659 39.466 106.476 39.5322 106.3 39.6646C106.138 39.7823 106.058 39.9515 106.058 40.1721C106.058 40.334 106.153 40.4737 106.344 40.5914C106.534 40.6944 106.754 40.79 107.004 40.8783C107.253 40.9665 107.429 41.0327 107.532 41.0769C108.897 41.577 109.902 42.1508 110.547 42.798C111.193 43.4306 111.516 44.2544 111.516 45.2695C111.516 46.5199 111.01 47.4982 109.997 48.2043C108.999 48.8957 107.591 49.2415 105.771 49.2415Z" fill="white"/>
</svg>

<svg xmlns="http://www.w3.org/2000/svg" width="112" height="56" fill="none" viewBox="0 0 112 56"><path fill="#fff" d="M46.146 32.83c0 12.796-10.33 23.17-23.073 23.17S0 45.626 0 32.83 10.33 9.659 23.073 9.659s23.073 10.374 23.073 23.17"/><path fill="#fff" d="M54.488.804c.555.56.86 1.27.792 2.092-.017.887-.792 3.065-1.713 4.202a12.5 12.5 0 0 1-3.198 2.801l-4.742 2.911c-.988.607-1.66 1.568-1.946 2.784l-.308 1.307a.5.5 0 0 1-.134.248c-.284.284-.868.159-1.305-.28l-3.442-3.457c-.437-.439-.563-1.026-.28-1.31a.5.5 0 0 1 .248-.135l1.301-.31c1.21-.287 2.168-.962 2.772-1.954l2.899-4.762a12.6 12.6 0 0 1 2.79-3.212c1.131-.924 3.3-1.703 4.183-1.72.819-.067 1.526.238 2.083.795"/><path fill="#000" d="M23.125 43.45q-3.346 0-6.24-3.014c-2.553-2.658-6.31-8.082-6.31-11.987q0-2.73 1.185-4.467 1.185-1.772 3.521-1.772c3.066 0 6.957 3.592 7.844 6.239 1.023-2.481 4.733-6.24 7.74-6.24q2.335 0 3.52 1.702t1.186 4.538c0 3.915-3.679 9.32-6.24 11.987q-2.86 3.013-6.206 3.013"/><path fill="#ff9700" d="M29.48 31.965q.94 1.053.841 2.46-.097 1.41-1.327 2.517-1.186 1.11-2.611 1.032a3.2 3.2 0 0 1-2.345-1.107 3.22 3.22 0 0 1-.841-2.46q.098-1.408 1.304-2.495 1.23-1.109 2.634-1.053a3.2 3.2 0 0 1 2.345 1.106"/><path fill="#fff" d="M56.178 31.842q-2.84 0-4.14-.683-1.298-.684-1.672-2.182-.375-1.498-.375-4.671 0-3.217.353-4.782.375-1.587 1.65-2.336 1.3-.771 4.118-.771 1.695 0 3.456.793 1.762.771 2.972 2.556 1.212 1.785 1.211 4.562 0 2.666-1.233 4.363-1.233 1.674-2.972 2.424-1.74.727-3.368.727m-1.365-3.878q.705.088 1.013.088 1.563 0 2.421-.837.86-.838.859-2.314 0-1.323-.837-2.05-.836-.749-2.355-.749-.573 0-1.101.088zm16.737-.11q1.123.132 1.74.573.638.418.638 1.344 0 .925-.66 1.366-.639.44-1.542.55-.903.09-2.334.089-1.409 0-2.311-.088-.903-.11-1.541-.551-.639-.441-.639-1.366 0-.904.595-1.323.615-.44 1.673-.594-.11-1.278-.11-3.658 0-2.138.088-3.438-1.277-.132-2.004-.617-.726-.485-.726-1.52 0-1.014.704-1.499.705-.484 1.696-.595.99-.11 2.554-.11t2.553.11 1.695.595q.727.485.727 1.499 0 1.035-.749 1.52-.726.485-2.025.617.11 1.212.11 3.438a43 43 0 0 1-.132 3.657m9.9 4.011a9.8 9.8 0 0 1-2.795-.397q-1.321-.418-2.158-1.145-.837-.75-.837-1.697 0-.903.55-1.433.552-.528 1.388-.528.55 0 .947.154.418.132.902.396.352.176.595.287.264.088.55.088.726 0 .727-.573 0-.22-.309-.374-.308-.177-1.034-.463-1.298-.507-2.114-.992-1.255-.75-1.74-1.63-.461-.882-.462-2.204 0-1.278.815-2.402.814-1.145 2.224-1.829 1.408-.683 3.082-.683 1.63 0 2.972.507 1.365.484 2.135 1.366.793.86.793 1.917 0 1.212-.726 1.83-.704.594-1.586.594-.725 0-1.1-.088a4.5 4.5 0 0 1-.705-.242 3.5 3.5 0 0 0-.484-.155 1.8 1.8 0 0 0-.55-.066.9.9 0 0 0-.551.198.59.59 0 0 0-.242.507q0 .243.286.419.286.154.66.287t.529.198q2.047.75 3.016 1.719.969.947.969 2.468 0 1.872-1.52 2.93-1.496 1.035-4.226 1.036m16.202-7.58q1.959.904 3.324 2.181 1.387 1.278 1.387 2.777 0 1.322-.726 1.961-.727.639-1.784.639-1.518 0-2.862-1.388-1.32-1.41-2.553-3.68 0 1.565-.177 2.622-.153 1.058-.704 1.763-.55.683-1.651.683-1.145 0-1.695-.86-.53-.859-.66-2.07-.111-1.213-.111-3.174 0-1.388.022-3.283.045-1.917.088-2.38.044-1.653.683-2.644.638-1.014 1.805-1.014 1.343 0 1.871 1.146.55 1.146.55 3.504v.66a19 19 0 0 1 2.598-3.635q1.476-1.61 2.951-1.609 1.033 0 1.695.793.682.772.682 1.918 0 1.542-1.321 2.952-1.299 1.389-3.412 2.138M57.497 49.242a7 7 0 0 1-3.72-.993 7.74 7.74 0 0 1-2.729-2.78q-1.013-1.79-1.056-3.95a7.55 7.55 0 0 1 .968-3.84 7.46 7.46 0 0 1 2.73-2.803 7.2 7.2 0 0 1 3.807-1.059 6.95 6.95 0 0 1 3.742 1.015 7.53 7.53 0 0 1 2.75 2.847q1.014 1.809 1.013 3.994a7.3 7.3 0 0 1-1.012 3.773 7.56 7.56 0 0 1-2.751 2.736 7.55 7.55 0 0 1-3.742 1.06m.066-4.303q1.012 0 1.717-.729.726-.728.704-1.897 0-1.193-.704-1.92a2.3 2.3 0 0 0-1.717-.728q-1.012 0-1.717.728-.704.727-.704 1.92 0 1.17.704 1.897.705.728 1.717.728M74.25 49.22q-2.114 0-3.94-1.876t-2.906-4.59q-1.078-2.736-1.078-5.075 0-1.7.748-2.78.75-1.104 2.223-1.104 1.211 0 1.981.927.793.927 1.233 2.273.44 1.323.946 3.486.462 2.03.792 3.001.287-.684.55-1.633.265-.949.485-1.875.505-2.03.924-3.266.44-1.236 1.145-2.075.704-.838 1.782-.838 1.475 0 2.223 1.06.75 1.058.749 2.824 0 2.338-1.057 5.075-1.056 2.715-2.883 4.59-1.805 1.875-3.918 1.875m16.669.023a7 7 0 0 1-3.72-.993 7.74 7.74 0 0 1-2.73-2.78q-1.011-1.79-1.056-3.95a7.55 7.55 0 0 1 .969-3.84 7.46 7.46 0 0 1 2.729-2.803 7.2 7.2 0 0 1 3.808-1.059 6.95 6.95 0 0 1 3.741 1.015 7.53 7.53 0 0 1 2.751 2.847q1.013 1.809 1.013 3.994a7.3 7.3 0 0 1-1.013 3.773 7.56 7.56 0 0 1-2.75 2.736 7.55 7.55 0 0 1-3.742 1.06m.066-4.303q1.013 0 1.716-.729.727-.728.705-1.897 0-1.193-.705-1.92a2.3 2.3 0 0 0-1.716-.728q-1.013 0-1.717.728-.704.727-.704 1.92 0 1.17.704 1.897.705.728 1.717.728m14.787 4.304q-1.452 0-2.795-.398-1.32-.42-2.157-1.147-.836-.75-.836-1.7 0-.903.55-1.434t1.387-.53q.55 0 .946.155.418.132.903.397.351.177.594.287.264.09.55.089.726 0 .726-.574 0-.22-.308-.375-.308-.177-1.034-.464-1.299-.507-2.113-.993-1.254-.75-1.739-1.633-.462-.882-.462-2.206 0-1.28.814-2.406.815-1.147 2.223-1.831t3.082-.684q1.628 0 2.971.507 1.364.486 2.135 1.369.792.86.792 1.92 0 1.213-.726 1.83-.705.597-1.585.597-.726 0-1.1-.089a4.5 4.5 0 0 1-.705-.242 3.5 3.5 0 0 0-.484-.155 1.8 1.8 0 0 0-.55-.066.9.9 0 0 0-.55.199.59.59 0 0 0-.242.507q0 .243.286.42.285.154.66.286.373.133.528.199 2.047.75 3.015 1.721.969.949.969 2.471 0 1.876-1.519 2.935-1.497 1.038-4.226 1.038"/></svg>
